!!!COM: Vivaldi, Antonio Lucio
!!!CDT: 1678/03/04-1741/08/28
!!!OPR: 12 sonatas for two violins and basso continuo
!!!OTL: Sonata in D major, op. @{OPS}, no. @{ONM} (@{SCT})
!!!OPS: 1
!!!ONM: 6
!!!OMV: 2. Corrente
!!!SCT: RV 62
!!!SCA: Antonio Vivaldi: Thematisch-systematisches Verzeichnis seiner Werke (Ryom-Verzeichnis)
!!!OMD: Allegro
!!!key: D
**kern	**fb	**kern	**kern
*part3	*part4	*part2	*part1
*staff3	*	*staff2	*staff1
*I"Violoncello\nContinuo	*	*I"Violin 2	*I"Violin 1
*clefF4	*	*clefG2	*clefG2
*k[f#c#]	*	*k[f#c#]	*k[f#c#]
*D:	*	*D:	*D:
*M3/4	*	*M3/4	*M3/4
2.r	.	2.aa\	4r
.	.	.	4dd\
.	.	.	4ff#y\
=1	=1	=1	=1
2.r	.	2.gg\	(4ff#y\
.	.	.	4ee\)
.	.	.	4aa\
=2	=2	=2	=2
4r	.	2.ff#y\	(4aa\
[2d\	5	.	4dd\)
.	6	.	4bb\
=3	=3	=3	=3
4d\]	4 2	4r	4ee\
8c#y\L	6	4ee\	4aa\
8B\J	.	.	.
4c#y\	.	4aa\	4r
=4	=4	=4	=4
4B\	7	(4aa\	4r
4BB/	6	4gg\)	4dd\
[4B\	.	4r	4gg\
=5	=5	=5	=5
4B\]	4 2	4r	4cc#y\
8A\L	6	4cc#y\	4ff#y\
8G\J	.	.	.
4A\	.	4ff#y\	4r
=6	=6	=6	=6
4G\	7	(4ff#y\	4r
4GG/	6	4ee\)	4b\
[4G\	.	4r	4ee\
=7	=7	=7	=7
4G\]	4 2	4r	(4a/
8F#y\L	6	4a/	4dd\)
8E\J	.	.	.
4F#y\	.	[4dd\	4aa\
=8	=8	=8	=8
4G\	6 5	4dd\]	(4bb\
4A\	.	8cc#y\L	4ee\)
.	.	8b\J	.
4AA/	.	4cc#y\	4aa\
=9	=9	=9	=9
4D\	.	4dd\	8ff#y\L
.	.	.	8dd\
[2d\	.	4aa\	8ff#y\
.	.	.	8gg\
.	.	4ff#y\	8aa\
.	.	.	8ff#y\J
=10	=10	=10	=10
4d\]	4 2	4ee\	8gg\L
.	.	.	8ff#y\
2c#y\	6	4aa\	8ee\
.	.	.	8ff#y\
.	.	4ee\	8gg\
.	.	.	8aa\J
!!LO:LB:g=original
=11	=11	=11	=11
4d\	.	8a\L	4ff#y\
.	.	8dd\	.
4D\	.	8ff#y\	4aa\
.	.	8gg\	.
[4d\	.	8aa\	4ff#y\
.	.	8ff#y\J	.
=12	=12	=12	=12
4d\]	4 2	8gg\L	4ee\
.	.	8ff#y\	.
2c#y\	6	8ee\	4aa\
.	.	8ff#y\	.
.	.	8gg\	4ee\
.	.	8aa\J	.
=13	=13	=13	=13
4d\	.	4ff#y\	4a/
2F#y\	6	4a/	4r
.	.	[4dd\	4aa\
=14	=14	=14	=14
4GG/	5	8dd\L]	4.bb\
.	.	(8g\	.
2G\	6	8b\	.
.	.	8gg\J)	(8ee\
.	.	[4ee\	8gg\L
.	.	.	8ccc#y\J)
=15	=15	=15	=15
4AA/	5	8ee\L]	4.ccc#y\
.	.	(8a\	.
2A\	6	8cc#y\	.
.	.	8aa\J)	(8ff#y\
.	.	[4ff#y\	8aa\L
.	.	.	8ccc#y\J)
=16	=16	=16	=16
4BB/	5	8ff#y\L]	4.ddd\
.	.	(8b\	.
2B\	6	8dd\	.
.	.	8bb\J)	(8gg#X\
.	.	4gg#X\	8bb\L
.	.	.	8ddd\J)
=17	=17	=17	=17
8C#y/L	6	8aa\L	8ee\L
8D/J	.	8cc#y\J	8aa\J
4E\	#	2b\	2gg#X\
4EE/	.	.	.
=18	=18	=18	=18
2A\	.	4a/	2aa\
.	.	[2aa\	.
4F#y\	.	.	4r
=19	=19	=19	=19
2E\	5 4	4aa\]	2.bb\
.	X #	[2gg#X\	.
4E\	.	.	.
=20	=20	=20	=20
2F#y\	9#/	4gg#y\]	2.aa\
.	8	[2ff#y\	.
4D#X\	5-r	.	.
!!LO:LB:g=original
=21	=21	=21	=21
2E\	9 #	4ff#y\]	2gg#X\
.	X 8	4ee\	.
4F#y\	6	[4dd\	4ff#y\
=22	=22	=22	=22
4G#X\	6 5	4dd\]	2ee\
4A\	.	2cc#y\	.
4F#y\	5	.	[4a/
=23	=23	=23	=23
4D\	6 5	2.b\	4a/]
4E\	#	.	2g#X/
4EE/	.	.	.
=24	=24	=24	=24
2.AA/	.	2.cc#y\	2.a/
=25:|!|:	=25:|!|:	=25:|!|:	=25:|!|:
2.r	.	4r	2.ee\
.	.	4a/	.
.	.	4cc#y\	.
=26	=26	=26	=26
2.r	.	(4cc#y\	2.dd\
.	.	4b\)	.
.	.	4ee\	.
=27	=27	=27	=27
4r	.	(4ee\	2cc#y\
2A\	5	4a/)	.
.	6	4cc#y\	4ff#y\
=28	=28	=28	=28
4G#X\	7	2.b\	(4ff#y\
2Gn\	6	.	4b\)
.	.	.	4ee\
=29	=29	=29	=29
2F#y\	7 #	2a#X/	(4ee\
.	6	.	4ff#y\)
4E\	5	4b\	[4gg\
=30	=30	=30	=30
4AA#X/	7	2.cc#y\	4gg\]
4BB/	9 5	.	4ff#y\
4C#y/	6#/	.	4ee\
=31	=31	=31	=31
2BB/	.	4.dd\	4.ff#y\
.	.	8cc#y\	8ee\
4D\	6	[4b\	[4dd\
=32	=32	=32	=32
4E\	7 5	4b\]	4dd\]
4F#y\	#	2a#X/	2cc#y\
4FF#y/	.	.	.
=33	=33	=33	=33
4BB/	.	4b\	4b\
2D\	6	4r	4ff#y\
.	.	4ff#y\	[4bb\
!!LO:LB:g=original
=34	=34	=34	=34
4E\	#	2gg#X\	4bb\]
2E#X\	6 5	.	4gg#X\
.	.	4r	[4ccc#y\
=35	=35	=35	=35
2F#y\	.	4aa\	4ccc#y\]
.	.	4ff#y\	4aa\
4D\	6	4bb\	4ddd\
=36	=36	=36	=36
2C#y/	7 #	(4bb\	(4ee#X\
.	.	4gg#X\)	4cc#y\)
4AA/	6	[4aa\	[4ff#y\
=37	=37	=37	=37
4BB/	7 5	4aa\]	4ff#y\]
2C#y/	#	2gg#X\	2ee#X\
=38	=38	=38	=38
2F#y\	.	2ff#y\	2ff#y\
8F#y\L	.	4r	8ff#y\L
8E\J	.	.	8ggn\J
=39	=39	=39	=39
4D#X\	5-r	4r	(4aa\
2BB/	7 #	4ff#y\	4dd#X\)
.	.	4dd#X\	4aa\
=40	=40	=40	=40
2E\	5 4	2.b\	(4aa\
.	X 3	.	4gg\)
8e\L	.	.	8ee\L
8dn\J	.	.	8ff#y\J
=41	=41	=41	=41
4c#y\	5	4r	(4gg\
2A\	7	4ee\	4cc#y\)
.	.	4cc#y\	4gg\
=42	=42	=42	=42
4.d\	5 4	2a/	(4gg\
.	X 3	.	4ff#y\)
8c#y\	.	.	.
8B\L	.	4dd\	[4bb\
8A\J	.	.	.
=43	=43	=43	=43
2.G\	5	4.ee\	8bb\L]
.	.	.	8aa\
.	.	.	8gg\
.	.	8dd\	8ff#y\
.	6	8cc#y\L	8ee\
.	.	8b\J	8dd\J
=44	=44	=44	=44
2A\	.	4a/	4cc#y\
.	.	4cc#y\	4r
4F#y\	6	[4dd\	4aa\
=45	=45	=45	=45
4GG/	5	8dd\L]	4.bb\
.	.	(8g\	.
2G\	6	8b\	.
.	.	8gg\J)	(8ee\
.	.	[4ee\	8gg\L
.	.	.	8bb\J)
!!LO:LB:g=original
=46	=46	=46	=46
4AA/	5	8ee\L]	4.ccc#y\
.	.	(8a\	.
2A\	6	8cc#y\	.
.	.	8aa\J)	(8ff#y\
.	.	[4ff#y\	8aa\L
.	.	.	8ccc#y\J)
=47	=47	=47	=47
4BB/	5	8ff#y\L]	4.ddd\
.	.	(8b\	.
2B\	6	8dd\	.
.	.	8bb\J)	(8gg\
.	.	4gg\	8bb\L
.	.	.	8ddd\J)
=48	=48	=48	=48
8A\L	7	4.gg\	4.ccc#y\
8B\	.	.	.
8A\	.	.	.
8G\	.	8ee\	8aa\
8F#y\	6	8aa\L	8ddd\L
8E\J	.	8gg\J	8ccc#y\J
=49	=49	=49	=49
8D\L	.	8ff#y\L	8ddd\L
8G\J	.	8dd\J	8ff#y\J
4A\	.	2cc#y\	2ee\
4AA/	.	.	.
=50	=50	=50	=50
2D\	.	4dd\	2dd\
.	.	[2dd\	.
4BB/	.	.	4r
=51	=51	=51	=51
2AA/	5 4	4dd\]	2.ee\
.	.	[2cc#y\	.
4AA/	3	.	.
=52	=52	=52	=52
2BB/	9	4cc#y\]	2.dd\
.	8	[2b\	.
4GG#X/	5	.	.
=53	=53	=53	=53
2AA/	9	4b\]	2cc#y\
.	8	4a/	.
4BB/	6	[4g/	4dd\
=54	=54	=54	=54
4C#y/	6 5	4g/]	(4ee\
4D\	.	2f#y/	4a/)
4F#y\	6	.	[4dd\
=55	=55	=55	=55
4G\	6 5	2.e/	4dd\]
4A\	.	.	2cc#y\
4AA/	.	.	.
=56	=56	=56	=56
2.DD/	.	2.f#y/	2.dd\
=:|!	=:|!	=:|!	=:|!
*-	*-	*-	*-
!!!SMS: RV 62 / Estienne Roger (No. 363), Amsterdam [facs.]
!!!ENC: Fran Bennion
!!!END: 2004/10/08
!!!ONB: Converted from MuseData with musedata2hum on Mon Apr  8 00:46:39 2024
!!!YEM: (C) 2004, 2004 Center for Computer Assisted Research in the Humanities.
!!!system-decoration: [(s1,s2,s3)]
!!!URL-pdf: https://pdf.musedata.org/vivaldi-op01-no06.pdf#page=2 MuseData edition
!!!URL-pdf: https://s9.imslp.org/files/imglnks/usimg/1/18/IMSLP280399-PMLP10351-Vivaldi_Sonatas_Op_1_-_Violino_Primo.pdf#page=10 Violino primo part, Amsterdam: Estienne Roger, n.d.(ca.1723). Plate 363.
!!!URL-pdf: https://s9.imslp.org/files/imglnks/usimg/d/d5/IMSLP280400-PMLP10351-Vivaldi_Sonatas_Op_1_-_Violino_Secondo.pdf#page=9 Violino secondo part, Amsterdam: Estienne Roger, n.d.(ca.1723). Plate 363.
!!!URL-pdf: https://s9.imslp.org/files/imglnks/usimg/8/89/IMSLP280401-PMLP10351-Vivaldi_Sonatas_Op_1_-_Organo_e_Violoncello.pdf#page=8 Organo e Violoncello parts, Amsterdam: Estienne Roger, n.d.(ca.1723). Plate 363.
!!!title: @{OTL}, mvmt. @{OMV}
!!!EEV: 2024/04/08
!!!source-file: https://bitbucket.org/musedata/vivaldi/src/master/roger/op1/rv062_06/stage2/02/01
!!!source-file: https://bitbucket.org/musedata/vivaldi/src/master/roger/op1/rv062_06/stage2/02/02
!!!source-file: https://bitbucket.org/musedata/vivaldi/src/master/roger/op1/rv062_06/stage2/02/03
!!!source-file: https://bitbucket.org/musedata/vivaldi/src/master/roger/op1/rv062_06/stage2/02/04
